src/data/icons/wallet-2.svg

<?xml version="1.0" encoding="UTF-8"?>
<svg width="20px" height="23px" viewBox="0 0 20 23" version="1.1" xmlns="http://www.w3.org/2000/svg" xmlns:xlink="http://www.w3.org/1999/xlink">
    <title>Group 32</title>
    <g id="⚙️-00-Settings" stroke="none" stroke-width="1" fill="none" fill-rule="evenodd">
        <g id="wallfair-mobile-settings-menu-01" transform="translate(-63.000000, -396.000000)">
            <g id="Group-16" transform="translate(32.000000, 368.000000)">
                <g id="Group-32" transform="translate(31.000000, 28.000000)">
                    <polygon id="Path-3" fill="#FFFFFF" points="1 5.54431268 19 5.54431268 19 20.6139072 17.3714286 22.1585029 2.62857143 22.1585029 1.08571429 20.6139072"></polygon>
                    <path d="M1.31428571,4.73089805 L2,5.2357761 L2,5.2357761 L1.31428571,4.73089805 Z M3.94285714,1.2902439 L3.25714286,0.785365854 L3.25714286,0.785365854 L3.94285714,1.2902439 Z M16.0571429,1.2902439 L15.3714286,1.79512195 L15.3714286,1.79512195 L16.0571429,1.2902439 Z M18.6857143,4.73089805 L19.3714286,4.22602 L19.3714286,4.22602 L18.6857143,4.73089805 Z M14.2857143,9.81707317 C14.2857143,9.35234976 13.9019429,8.97560976 13.4285714,8.97560976 C12.9552,8.97560976 12.5714286,9.35234976 12.5714286,9.81707317 L14.2857143,9.81707317 Z M7.42857143,9.81707317 C7.42857143,9.35234976 7.0448,8.97560976 6.57142857,8.97560976 C6.09804571,8.97560976 5.71428571,9.35234976 5.71428571,9.81707317 L7.42857143,9.81707317 Z M18.2857143,6.07723951 L18.2857143,19.9146005 L20,19.9146005 L20,6.07723951 L18.2857143,6.07723951 Z M16.8571429,21.3170395 L3.14285714,21.3170395 L3.14285714,22.9999663 L16.8571429,22.9999663 L16.8571429,21.3170395 Z M1.71428571,19.9146005 L1.71428571,6.07723951 L0,6.07723951 L0,19.9146005 L1.71428571,19.9146005 Z M2,5.2357761 L4.62857143,1.79512195 L3.25714286,0.785365854 L0.628571429,4.22602 L2,5.2357761 L2,5.2357761 Z M4.85714286,1.68292683 L15.1428571,1.68292683 L15.1428571,0 L4.85714286,0 L4.85714286,1.68292683 Z M15.3714286,1.79512195 L18,5.2357761 L19.3714286,4.22602 L16.7428571,0.785365854 L15.3714286,1.79512195 Z M15.1428571,1.68292683 C15.2328,1.68292683 15.3174857,1.72449512 15.3714286,1.79512195 L16.7428571,0.785365854 C16.3651429,0.290966829 15.7723429,2.22044605e-16 15.1428571,2.22044605e-16 L15.1428571,1.68292683 Z M4.62857143,1.79512195 C4.68252571,1.72449512 4.76721143,1.68292683 4.85714286,1.68292683 L4.85714286,0 C4.22762286,0 3.63485714,0.290966829 3.25714286,0.785365854 L4.62857143,1.79512195 L4.62857143,1.79512195 Z M3.14285714,21.3170732 C2.35387429,21.3170732 1.71428571,20.6892293 1.71428571,19.9146341 L1.11022302e-15,19.9146341 C1.11022302e-15,21.6186537 1.40710857,23 3.14285714,23 L3.14285714,21.3170732 Z M18.2857143,19.9146341 C18.2857143,20.6892293 17.6461714,21.3170732 16.8571429,21.3170732 L16.8571429,23 C18.5929143,23 20,21.6186537 20,19.9146341 L18.2857143,19.9146341 Z M20,6.07727317 C20,5.40968976 19.7794286,4.76011366 19.3714286,4.22605366 L18,5.23580976 C18.1854857,5.47856634 18.2857143,5.77381902 18.2857143,6.07727317 L20,6.07727317 Z M1.71428571,6.07727317 C1.71428571,5.77381902 1.81453714,5.47856634 2,5.23580976 L0.628571429,4.22605366 C0.22056,4.76011366 0,5.40968976 0,6.07727317 L1.71428571,6.07727317 Z M0.987862857,6.17076537 L19.0120914,6.17076537 L19.0120914,4.48783854 L0.987862857,4.48783854 L0.987862857,6.17076537 Z M12.5714057,9.81710683 C12.5714057,11.2112434 11.4200914,12.3414971 9.99997714,12.3414971 L9.99997714,14.0244239 C12.3669486,14.0244239 14.2856914,12.14078 14.2856914,9.81710683 L12.5714057,9.81710683 Z M9.99997714,12.3414971 C8.57986286,12.3414971 7.42854857,11.2112434 7.42854857,9.81710683 L5.71426286,9.81710683 C5.71426286,12.14078 7.63300571,14.0244239 9.99997714,14.0244239 L9.99997714,12.3414971 Z" id="Shape" fill="#0E0927" fill-rule="nonzero"></path>
                </g>
            </g>
        </g>
    </g>
</svg>

<svg width="20" height="23" xmlns="http://www.w3.org/2000/svg"><g fill="none" fill-rule="evenodd"><path fill="#FFF" d="M1 5.544h18v15.07l-1.629 1.545H2.63l-1.543-1.545z"/><path d="M1.314 4.73L2 5.237l-.686-.505zm2.629-3.44L3.257.785l.686.505zm12.114 0l-.686.505.686-.505zm2.629 3.44l.685-.504-.685.505zm-4.4 5.087a.85.85 0 00-.857-.841.85.85 0 00-.858.841h1.715zm-6.857 0a.85.85 0 00-.858-.841.85.85 0 00-.857.841H7.43zm10.857-3.74v13.838H20V6.077h-1.714zm-1.429 15.24H3.143V23h13.714v-1.683zM1.714 19.915V6.077H0v13.838h1.714zM2 5.235l2.629-3.44L3.257.785.63 4.226 2 5.236zm2.857-3.552h10.286V0H4.857v1.683zm10.514.112L18 5.235l1.371-1.009-2.628-3.44-1.372 1.01zm-.228-.112c.09 0 .174.041.228.112l1.372-1.01a2.013 2.013 0 00-1.6-.785v1.683zm-10.514.112a.288.288 0 01.228-.112V0c-.63 0-1.222.291-1.6.785l1.372 1.01zM3.143 21.317c-.79 0-1.429-.628-1.429-1.402H0C0 21.619 1.407 23 3.143 23v-1.683zm15.143-1.402c0 .774-.64 1.402-1.429 1.402V23C18.593 23 20 21.619 20 19.915h-1.714zM20 6.077c0-.667-.22-1.317-.629-1.85L18 5.235c.185.243.286.538.286.841H20zm-18.286 0c0-.303.1-.598.286-.841L.629 4.226A3.048 3.048 0 000 6.077h1.714zm-.726.094h18.024V4.488H.988V6.17zM12.57 9.817c0 1.394-1.15 2.524-2.571 2.524v1.683c2.367 0 4.286-1.883 4.286-4.207H12.57zM10 12.341c-1.42 0-2.571-1.13-2.571-2.524H5.714c0 2.324 1.919 4.207 4.286 4.207v-1.683z" fill="#0E0927" fill-rule="nonzero"/></g></svg>
